X: 14
T: Banshee, The
C: James McMahon
Z: UPipes & harp
S: https://thesession.org/tunes/8#setting46467
R: reel
M: 4/4
L: 1/8
K: Gmaj
|:G2 GD EDBD|GDGB d2 Bd|eged BAGA|BAGE EDDE|
G2 GD EDBD|GDGB d2 Bd|eged BAGA|BAGE ED D2:|
eaag efge|dBBA B2 Bd|eB B2 gBfB|eBBA B2 Bd|
eaag efge|dBBA B2 Bd|eged BAGA|BAGE EDD2|
eaag efge|dBBA B2 Bd|eB ~B2 egfg|eBBA B2 Bd|
eaag efge|dBBA B2 Bd|eged BAGA|BAGE EDDE||

